packages/katcn/src/icons/svg/arrow4.svg

<svg width="24" height="25" viewBox="0 0 24 25" fill="none" xmlns="http://www.w3.org/2000/svg">
<path d="M12.2148 21.296C11.6963 21.296 11.2815 21.196 10.763 20.9961C9.62222 20.4962 9 19.3966 9 18.197V6.40064C9 5.20101 9.72593 4.20133 10.8667 3.60151C12.0074 3.10167 13.3556 3.20164 14.2889 4.00139L21.8593 9.89955C22.5852 10.4994 23 11.2991 23 12.2988C23 13.1985 22.5852 14.0982 21.8593 14.698L14.2889 20.5962C13.6667 21.0961 12.9407 21.296 12.2148 21.296ZM11.6963 5.40095C11.4889 5.50092 11.0741 5.80083 11.0741 6.40064V18.2969C11.0741 18.8967 11.4889 19.1966 11.6963 19.2966C12.1111 19.4966 12.6296 19.3966 12.9407 19.1966L20.5111 13.2985C20.8222 13.0985 20.9259 12.7986 20.9259 12.4987C20.9259 12.1988 20.8222 11.8989 20.5111 11.699L12.9407 5.80083C12.5259 5.30098 12.0074 5.30098 11.6963 5.40095Z" fill="black"/>
<path d="M6 18.296C5.4 18.296 5 17.896 5 17.296V7.29599C5 6.69599 5.4 6.29599 6 6.29599C6.6 6.29599 7 6.69599 7 7.29599V17.296C7 17.896 6.6 18.296 6 18.296Z" fill="black"/>
<path d="M2 16.296C1.4 16.296 1 15.896 1 15.296V9.29599C1 8.69599 1.4 8.29599 2 8.29599C2.6 8.29599 3 8.69599 3 9.29599V15.296C3 15.896 2.6 16.296 2 16.296Z" fill="black"/>
</svg>

<svg xmlns="http://www.w3.org/2000/svg" fill="none" viewBox="0 0 24 25"><path fill="#000" d="M12.215 21.296c-.519 0-.934-.1-1.452-.3-1.14-.5-1.763-1.6-1.763-2.799V6.401c0-1.2.726-2.2 1.867-2.8 1.14-.5 2.489-.4 3.422.4l7.57 5.899c.726.6 1.141 1.4 1.141 2.399 0 .9-.415 1.8-1.14 2.399l-7.571 5.898c-.622.5-1.348.7-2.074.7m-.519-15.895c-.207.1-.622.4-.622 1v11.896c0 .6.415.9.622 1 .415.2.934.1 1.245-.1l7.57-5.898c.311-.2.415-.5.415-.8s-.104-.6-.415-.8l-7.57-5.898c-.415-.5-.934-.5-1.245-.4M6 18.296c-.6 0-1-.4-1-1v-10c0-.6.4-1 1-1s1 .4 1 1v10c0 .6-.4 1-1 1m-4-2c-.6 0-1-.4-1-1v-6c0-.6.4-1 1-1s1 .4 1 1v6c0 .6-.4 1-1 1"/></svg>
